X: 2011
T: Ash Grove, The
R: waltz
M: 3/4
K: Gmajor
G2 B2 d2|B2 G2 B2|AB cA BG|A2 F2 D2|
G2 BG AF|G2 E2 [C2c2]|D2 E2 F2|G4:|
G2 B2 d2|g2 d2 B2|AB cd ef|e2 c2 A2|
GA Bc de|d2 B2 G2|A2 d2 ^c2|d3 c BA|
B2 gd gd|B2 G2 G2|AB cA BG|A2 F2 D2|
GA BG AF|G2 E2 [C2c2]|D2 E2 F2|G4:|

